X: 62
T:Caerleon Castle
M:C
L:1/8
Q:120
S:Mary Richards' (1787-1877) Collection
R:March
A:Wales
Z:brian_martin12345@yahoo.com
K:G
A/c/|ee ee ee AA/B/|cc Bc dB c>d|ee =fe dB cA|B3^G AAz:||!
e/f/|^g>g aa e3e/f/|^g>g aae3e|aa ^gg aa gg|aa bc' ba/^g/ ag/f/|!
ee ee ee =fe|dc Bc dB cd|ee =fe dB cA|B3^G AAz:||
